X:1
T:James Gibb editions
T:Mentre la bella Dafne - Croce
T:#
%%score [ 1 2 3 4 ]
L:1/8
Q:1/4=108
M:2/2
K:F
V:1 treble nm="Alto" snm="A"
V:2 treble-8 nm="Tenor I" snm="T I"
V:3 treble-8 nm="Tenor II" snm="T II"
V:4 bass nm="Bass" snm="B"
V:1
"^Giovanni Croce\n(1557-1609)""^Mentre la bella Dafne" D6 DD | D2 D2 D4- | D2 D2 _E2 F2 | %3
w: Men- tre la|bel- la Daf\-|* ne~~ha- vea de-|
w: |||
w: Il mi- se-|ro pas- tor,|* pal- li- do~~in|
 G4 ^F2 D2 |[M:2/2] D2 _E2 F4 | F2 F4 _E2 | D2 C2 D4 |1 !courtesy!_B,4 z4 :|2 B,2 B,2 _E2 E2 || %9
w: si- re Di|vo- len- tier|col suo Tir-|si mo- ri-|re.|re. * * *|
w: |||||* Dis- se: ca-|
w: vol- to, E-|ra dal lie-|to sen da|lei rac- col-|to;|to; * * *|
 D2 G2 (G2 ^F2) | G2 D3 D D2 | D4 D2 D2 | G2 G2 ^F2 G2 | (_E2 D4 C2) | D2 D3 C B,2 | %15
w: ro ben mi\- *|o, ca- ro ben|mi- o, dis-|se: ca- ro ben|mi\- * *|o, Mo- ri, che|
w: ||||||
w: ||||||
 A,2 G,2 D2 DG | ^F2 G2 D2 D2 | z2 D3 C B,2 | A,2 G,2 D4 | D2 D3 C B,2 | A,2 G,2 D2 DG | %21
w: mo- ro an- che'~i- o,|mo- ro~~an- ch'i- o,|mo- ri che'|mo- ro~~an ch'i-|o, mo- ri che|mo- ro an- ch'i- o,|
w: ||||||
w: ||||||
 ^F2 G2 D2 D2 | z2[Q:1/4=106] D3[Q:1/4=103] C[Q:1/4=101] B,2 | %23
w: mo- ro~~an- ch'i- o,|mo- ri che|
w: ||
w: ||
[Q:1/4=99] A,2[Q:1/4=97] G,2[Q:1/4=94] D4 |[Q:1/4=92] D8 |] %25
w: mo- ro~~an- ch'i-|o!|
w: ||
w: ||
V:2
 B6 BB | B2 B2 A4- | A2 B2 c2 d2 | (d2 c2) d2 A2 |[M:2/2][K:treble-8] A2 B2 c4 | d2 c4 c2 | %6
w: Men- tre la|bel- la Daf\-|* ne~~ha- vea de-|si\- * re Di|vo- len- tier|col suo Tir-|
w: Il mi- se-|ro pas- tor,|* pal- li- do~~in|vol\- * to, E-|ra dal lie-|to sen da|
 A2 G2 (B2 A2) |1 G4 z4 :|2 G4 z4 || z2 G2 c2 c2 | B2 B2 A4 | G4 z2 A2 | (B-ABc d2) d2 | %13
w: si mo- ri\- *|re.|re.|Dis- se: ca-|ro ben mi-|o, dis-|se: * * * * ca-|
w: lei rac- col\- *|to;|to;|||||
 c2 A2 (G3 A | B2) A2 z2 d2- | dc B2 A2 G2 | z2 d3 c B2 | A2 G2 ^F2 GG | A2 B2 A4 | G4 z2 d2- | %20
w: ro ben mi\- *|* o Mo\-|* ri, che mo- ro,|mo- ri, che|mo- ro~~an- ch'i- o, che|mo- ro~~an che'i-|o, mo\-|
w: |||||||
 dc B2 A2 G2 | z2 d3 c B2 | A2 G2 ^F2 GG | A2 B2 A4 | =B8 |] %25
w: * ri che mo- ro,|mo- ri che|mo- ro~~an- ch'i- o, che|mo- ro~~an- ch'i-|o!|
w: |||||
V:3
 G6 GG | G2 G2 ^F4- | F2 G2 G2 B2 | (B2 AG) A2 ^F2 |[M:2/2][K:treble-8] ^F2 G2 A4 | B2 A4 G2 | %6
w: Men- tre la|bel- la Daf\-|* ne~~ha- vea de-|si\- * * re Di|vo- len- tier|col suo Tir-|
w: ||||||
w: Il mi- se-|ro pas- tor,|* pal- li- do~~in|vol\- * * to, E-|ra dal lie-|to sen da|
 ^F2 G2 (G2 F2) |1 G4 z4 :|2 G4 z2 G2 || A2 A2 A4 | D2 (G4 ^F2) | G2 B3 B A2 | G4 A2 B2 | %13
w: si mo- ri\- *|re.|re. *|se: ca- ro|ben mi\- *|o, ca- ro ben|mi- o, ca-|
w: ||* Dis-|||||
w: lei rac- col\- *|to;|to; *|||||
 G2 ^F2 G4- | G2 F2 z2 G2 | ^F2 G2 A2 B2 | A2 G2 z2 d2- | dc B2 A2 G2 | (^F2 G4 F2) | G4 z2 G2 | %20
w: ro ben mi\-|* o, Mo-|ri che mo- ro~~an-|ch'i- o, mo\-|* ri che mo- ro~~an-|ch'i\- * *|o, mo-|
w: |||||||
w: |||||||
 ^F2 G2 A2 B2 | A2 G2 z2 d2- | dc B2 A2 G2 | (^F2 G4 F2) | G8 |] %25
w: ri che mo- ro~~an-|ch'i- o, mo\-|* ri che mo- ro~~an-|ch'i\- * *|o!|
w: |||||
w: |||||
V:4
 G,,6 G,,G,, | G,,2 G,,2 D,4- | D,2 G,,2 C,2 B,,2 | _E,4 D,2 D,2 |[M:2/2] D,2 G,2 A,4 | %5
w: Men- tre la|bel- la Daf\-|* ne~~ha- vea de-|si- re Di|vo- len- tier|
w: |||||
w: Il mi- se-|ro pas- tor,|* pal- li- do~~in|vol- to, E-|ra dal lie-|
 B,,2 F,4 C,2 | D,2 _E,2 D,4 |1 G,,4 z4 :|2 G,,2 G,,2 C,2 C,2 || B,,2 G,,2 A,,4 | G,,4 z2 D,2 | %11
w: col suo Tir-|si mo- ri-|re.|re. * * *|ro ben mi-|o, dis-|
w: |||* Dis- se: ca-|||
w: to sen da|lei rac- col-|to;|to; * * *|||
 G,2 G,3 G, F,2 | _E,4 D,2 G,,2 | C,2 D,2 G,4 | D,4 z4 | z2 G,2 ^F,2 G,2 | D,2 G,,G, ^F,2 G,2 | %17
w: se: ca- ro ben|mi- o, ca-|ro ben mi-|o,|Mo- ri, che|mo- ro, che mo- ro~~an-|
w: ||||||
w: ||||||
 D,8- | D,8 | G,,4 z4 | z2 G,2 ^F,2 G,2 | D,2 G,,G, ^F,2 G,2 | D,8- | D,8 | G,,8 |] %25
w: ch'i\-||o,|mo- ri che|mo- ro, che mo- ro~~an-|ch'i\-||o!|
w: ||||||||
w: ||||||||

